icons/outline/battery-100.svg

<svg width="24" height="24" viewBox="0 0 24 24" fill="none" xmlns="http://www.w3.org/2000/svg">
<path d="M21 10.5H21.375C21.9963 10.5 22.5 11.0037 22.5 11.625V13.875C22.5 14.4963 21.9963 15 21.375 15H21M4.5 10.5H18V15H4.5V10.5ZM3.75 18H18.75C19.9926 18 21 16.9926 21 15.75V9.75C21 8.50736 19.9926 7.5 18.75 7.5H3.75C2.50736 7.5 1.5 8.50736 1.5 9.75V15.75C1.5 16.9926 2.50736 18 3.75 18Z" stroke="#0F172A" stroke-width="1.5" stroke-linecap="round" stroke-linejoin="round"/>
</svg>

<svg xmlns="http://www.w3.org/2000/svg" fill="none" viewBox="0 0 24 24" stroke-width="1.5" stroke="currentColor" aria-hidden="true">
  <path stroke-linecap="round" stroke-linejoin="round" d="M21 10.5h.375c.621 0 1.125.504 1.125 1.125v2.25c0 .621-.504 1.125-1.125 1.125H21M4.5 10.5H18V15H4.5v-4.5zM3.75 18h15A2.25 2.25 0 0021 15.75v-6a2.25 2.25 0 00-2.25-2.25h-15A2.25 2.25 0 001.5 9.75v6A2.25 2.25 0 003.75 18z"/>
</svg>
